dist/svgs/qq.svg

<svg xmlns="http://www.w3.org/2000/svg" viewBox="0 0 512 512"><path d="M502 346v12l-1 4-1 7-1 6-2 6-1 2-1 3-1 2-1 3-2 1-1 2-2 2-1 1-2 1-2 1h-3l-4-1-3-2-1-1-1-2-2-2-3-4-2-4-2-2-2-4-3-6-3-6h-3v2l-2 2-2 6-3 9-4 11-4 5-3 5-4 6-4 6-2 3-3 3-6 6 2 2 3 1 12 6 5 4 6 3 5 3 4 4 3 2 1 2 2 3 1 2 1 2 1 3 1 2v6l-1 2-1 2-1 3-2 3-2 2-2 2-1 1-4 3-4 2-4 2-4 2-5 2-3 1-2 1-6 1-6 2-6 1-7 1h-6l-7 1h-29l-7-1-8-1-8-1-8-1-8-2-7-2-8-2-8-3-7-2-4-1-4-2-2-1h-9l-7-1h-9l-3 2-4 3-6 3-6 3-4 2-4 2-9 3-4 2-5 1-7 1-5 1h-4l-5 1h-42l-12-2-6-1h-7l-6-1-6-2-5-1-6-2-5-2-4-2-5-2-4-2-3-3-2-1-1-2-2-1-1-2-1-2-1-1-1-4v-2l-1-2v-2l1-2v-11l1-2 1-3 2-3 1-1 1-2 2-3 2-1 2-1 1-2h3l2-2 3-1 3-1 3-1 3-1h3l4-1h4l2-1v-1l-3-1-5-5-4-3-4-4-5-5-4-5-6-6-2-4-2-3-2-4-2-5-3-4-2-5-2-4-2-6-2-5-1-6-2-1-1 1-1 2-1 3-3 5-1 3-2 2-2 3-3 3-2 3-4 3-2 3-3 2-4 2-3 1-4 1-4 1-2-1v-1l-3-5-1-2-1-3-1-2v-3l-1-7-1-4v-13l1-9v-5l1-5 1-5 2-5 1-6 2-6 2-6 2-5 3-6 3-6 3-6 4-6 4-5 4-6 3-5 5-5 5-5 2-2 2-3 4-3 4-3 6-6 5-4 2-1-1-3-1-4v-11l1-3v-4l2-4 1-4 3-4 3-5v-10l2-4 1-5 1-2 1-2 1-2 2-2v-11l1-6 1-6 1-8 3-8 1-5 2-4 2-5 2-5 2-5 3-5 2-6 4-5 2-3 1-2 4-6 4-6 5-5 5-6 5-6 5-5 7-6 4-4 5-4 5-4 6-3 5-3 6-3 7-3 6-2 7-2 6-2 7-2 8-2 7-1 7-1 7-1h31l8 1 7 1 8 1 7 1 8 2 7 2 8 2 7 3 7 3 7 3 7 3 7 4 6 4 5 4 3 2 3 2 5 4 4 4 4 5 5 5 3 4 4 5 3 6 3 4 3 6 2 4 5 10 2 5 2 5 1 5 2 5 1 4 1 5 2 9 2 8 1 7 1 6 1 9 1 4 3 4 2 3 2 4 2 3 2 5 1 4 1 5 1 5v2l1 3v3l-1 2v7l-2 6-1 3-1 3v2l2 3 6 10 6 7 2 5 4 6 3 6 3 7 4 7 3 8 3 5 2 5 1 5 2 5 1 5 2 5 1 9 2 9z"/></svg>

<?xml version="1.0" encoding="UTF-8" standalone="no"?><svg   xmlns:svg="http://www.w3.org/2000/svg"   xmlns="http://www.w3.org/2000/svg"   version="1.1"   width="512"   height="512"   viewBox="0 0 512 512">  <path     d="M502 346V358L501 362L500 369L499 375L497 381L496 383L495 386L494 388L493 391L491 392L490 394L488 396L487 397L485 398L483 399H480L476 398L473 396L472 395L471 393L469 391L466 387L464 383L462 381L460 377L457 371L454 365H451V367L449 369L447 375L444 384L440 395L436 400L433 405L429 411L425 417L423 420L420 423L414 429L416 431L419 432L431 438L436 442L442 445L447 448L451 452L454 454L455 456L457 459L458 461L459 463L460 466L461 468V471V472V474L460 476L459 478L458 481L456 484L454 486L452 488L451 489L447 492L443 494L439 496L435 498L430 500L427 501L425 502L419 503L413 505L407 506L400 507H394L387 508H365H358L351 507L343 506L335 505L327 504L319 502L312 500L304 498L296 495L289 493L285 492L281 490L279 489H276H270L263 488H259H254L251 490L247 493L241 496L235 499L231 501L227 503L218 506L214 508L209 509L202 510L197 511H193L188 512H182H159H146L134 510L128 509H121L115 508L109 506L104 505L98 503L93 501L89 499L84 497L80 495L77 492L75 491L74 489L72 488L71 486L70 484L69 483L68 479V477L67 475V473L68 471V469V467V462V460L69 458L70 455L72 452L73 451L74 449L76 446L78 445L80 444L81 442H84L86 440L89 439L92 438L95 437L98 436H101L105 435H109L111 434V433L108 432L103 427L99 424L95 420L90 415L86 410L80 404L78 400L76 397L74 393L72 388L69 384L67 379L65 375L63 369L61 364L60 358L58 357L57 358L56 360L55 363L52 368L51 371L49 373L47 376L44 379L42 382L38 385L36 388L33 390L29 392L26 393L22 394L18 395L16 394V393L13 388L12 386L11 383L10 381V378L9 371L8 367V354L9 345V340L10 335L11 330L13 325L14 319L16 313L18 307L20 302L23 296L26 290L29 284L33 278L37 273L41 267L44 262L49 257L54 252L56 250L58 247L62 244L66 241L72 235L77 231L79 230L78 227L77 223V221V212L78 209V205L80 201L81 197L84 193L87 188V185V182V178L89 174L90 169L91 167L92 165L93 163L95 161V150L96 144L97 138L98 130L101 122L102 117L104 113L106 108L108 103L110 98L113 93L115 87L119 82L121 79L122 77L126 71L130 65L135 60L140 54L145 48L150 43L157 37L161 33L166 29L171 25L177 22L182 19L188 16L195 13L201 11L208 9L214 7L221 5L229 3L236 2L243 1L250 0H258H281L289 1L296 2L304 3L311 4L319 6L326 8L334 10L341 13L348 16L355 19L362 22L369 26L375 30L380 34L383 36L386 38L391 42L395 46L399 51L404 56L407 60L411 65L414 71L417 75L420 81L422 85L427 95L429 100L431 105L432 110L434 115L435 119L436 124L438 133L440 141L441 148L442 154L443 163L444 167L447 171L449 174L451 178L453 181L455 186L456 190L457 195L458 200V202L459 205V208L458 210V214V217L456 223L455 226L454 229V231L456 234L462 244L468 251L470 256L474 262L477 268L480 275L484 282L487 290L490 295L492 300L493 305L495 310L496 315L498 320L499 329L501 338z"     id="qq" /></svg>
